svg/white/gxs.svg

<svg xmlns="http://www.w3.org/2000/svg" width="32" height="32" viewBox="0 0 32 32">
  <path fill="#FFF" d="M16,32 C7.163444,32 0,24.836556 0,16 C0,7.163444 7.163444,0 16,0 C24.836556,0 32,7.163444 32,16 C32,24.836556 24.836556,32 16,32 Z M7.020763,7.02748221 L7.021163,7.02678221 C5.694063,8.29678221 5.653463,10.6292822 6.951163,11.9367822 C9.439163,14.4702822 11.979163,16.9571822 14.479163,19.4789822 C13.332363,20.6466822 12.168263,21.7940822 11.021463,22.9617822 C10.588863,23.3782822 10.130163,23.9285822 9.465363,23.8703822 C8.367963,23.8878822 7.679863,22.3968822 8.460863,21.5960822 C9.619163,20.3642822 10.855963,19.2023822 12.031763,17.9880822 C11.529463,17.4872822 11.027263,16.9834822 10.524963,16.4825822 C9.325963,17.6619822 8.129863,18.8442822 6.959863,20.0498822 C5.708563,21.3080822 5.679863,23.5212822 6.878563,24.8198822 C8.068863,26.2265822 10.399863,26.4098822 11.782063,25.1835822 C13.224963,23.8235822 14.586563,22.3821822 16.014963,21.0076822 C17.353363,22.3355822 18.671363,23.6896822 20.018463,25.0117822 C21.313263,26.3279822 23.638763,26.3246822 24.936463,25.0146822 C26.254163,23.7886822 26.370563,21.5172822 25.154163,20.1835822 C23.798363,18.7570822 22.372863,17.4029822 21.005463,15.9935822 C22.343863,14.6540822 23.687963,13.3232822 25.014763,11.9720822 C26.303763,10.7082822 26.324163,8.43688221 25.081563,7.13518221 C23.870963,5.75488221 21.551263,5.60638221 20.186763,6.83818221 C18.752563,8.18938221 17.417163,9.63668221 15.988763,10.9936822 C14.6474963,9.62888221 13.2916963,8.27671555 11.921363,6.93718221 C10.609163,5.64718221 8.289863,5.69988221 7.020763,7.02748221 Z M8.472763,10.4167822 L8.472063,10.4171822 C7.862363,9.79978221 8.103363,8.66428221 8.866863,8.29428221 C9.415863,7.96808221 10.135863,8.13698221 10.556863,8.59128221 C11.877863,9.88708221 13.175563,11.2091822 14.479163,12.5224822 C13.8210963,13.1728155 13.1668963,13.8270489 12.516563,14.4851822 C11.169863,13.1281822 9.796263,11.7973822 8.472763,10.4167822 Z M21.412063,8.62628221 L21.411963,8.62618221 C21.815463,8.17188221 22.497763,7.96808221 23.058363,8.25658221 C23.891563,8.60028221 24.152863,9.81458221 23.499663,10.4493822 C22.204863,11.8325822 20.811263,13.1197822 19.496163,14.4825822 C18.984863,13.9933822 18.485463,13.4954822 17.986163,12.9974822 C17.487763,13.5022155 16.9874297,14.0050155 16.485163,14.5058822 C18.6790297,16.7083489 20.8777297,18.9059822 23.081263,21.0987822 C23.548663,21.5326822 24.045063,22.1297822 23.827363,22.8197822 C23.624463,23.7952822 22.259963,24.2440822 21.557363,23.5040822 C20.172463,22.1994822 18.857363,20.8249822 17.516063,19.4766822 C18.015363,18.9815822 18.508963,18.4865822 18.999563,17.9856822 C18.494363,17.4877822 17.995063,16.9839822 17.492763,16.4830822 C16.996363,16.9811822 16.499963,17.4790822 16.000563,17.9711822 C15.350263,17.3070822 14.685363,16.6576822 14.017663,16.0111822 C16.491163,13.5592822 18.926963,11.0662822 21.412063,8.62628221 Z"/>
</svg>

<svg xmlns="http://www.w3.org/2000/svg" width="32" height="32"><path fill="#FFF" d="M16 32C7.163 32 0 24.837 0 16S7.163 0 16 0s16 7.163 16 16-7.163 16-16 16zM7.02 7.027h.001c-1.327 1.27-1.368 3.602-.07 4.91 2.488 2.533 5.028 5.02 7.528 7.542-1.147 1.168-2.31 2.315-3.458 3.483-.432.416-.89.967-1.556.908-1.097.018-1.785-1.473-1.004-2.274 1.158-1.232 2.395-2.394 3.57-3.608-.502-.5-1.004-1.005-1.506-1.505A217.222 217.222 0 0 0 6.96 20.05c-1.251 1.258-1.28 3.471-.081 4.77 1.19 1.407 3.52 1.59 4.903.364 1.443-1.36 2.805-2.802 4.233-4.176 1.338 1.328 2.656 2.682 4.003 4.004 1.295 1.316 3.62 1.313 4.918.003 1.318-1.226 1.435-3.498.218-4.831-1.356-1.427-2.781-2.781-4.149-4.19 1.339-1.34 2.683-2.67 4.01-4.022 1.289-1.264 1.31-3.535.067-4.837-1.211-1.38-3.53-1.529-4.895-.297-1.434 1.351-2.77 2.799-4.198 4.156a286.339 286.339 0 0 0-4.068-4.057c-1.312-1.29-3.631-1.237-4.9.09zm1.453 3.39c-.61-.617-.37-1.753.394-2.123.549-.326 1.269-.157 1.69.297 1.32 1.296 2.619 2.618 3.922 3.931-.658.65-1.312 1.305-1.962 1.963-1.347-1.357-2.72-2.688-4.044-4.068zm12.94-1.79h-.001c.403-.455 1.086-.659 1.646-.37.834.343 1.095 1.558.442 2.192-1.295 1.384-2.689 2.67-4.004 4.034-.511-.49-1.01-.988-1.51-1.486-.498.505-.999 1.008-1.5 1.509 2.193 2.202 4.392 4.4 6.595 6.593.468.434.964 1.03.746 1.72-.203.976-1.567 1.425-2.27.685-1.385-1.305-2.7-2.679-4.04-4.027.498-.495.992-.99 1.483-1.491-.506-.498-1.005-1.002-1.507-1.503-.497.498-.993.996-1.492 1.488-.65-.664-1.316-1.313-1.983-1.96 2.473-2.452 4.909-4.945 7.394-7.385z"/></svg>
